ePapirus/16x16/devices/drive-multidisk.svg

<svg xmlns="http://www.w3.org/2000/svg" width="16" height="16" version="1.1" viewBox="0 0 16 16">
 <defs>
  <style id="current-color-scheme" type="text/css">
   .ColorScheme-Text { color:#6e6e6e; } .ColorScheme-Highlight { color:#5294e2; }
  </style>
 </defs>
 <path style="fill:currentColor" class="ColorScheme-Text" d="M 1.1992189,0.99999995 C 0.53441881,0.99999995 1e-7,1.572871 1e-7,2.285156 v 3.4296879 c 0,0.7122859 0.53441871,1.2851562 1.1992188,1.2851562 h 0.8007812 v 1 H 1.1992189 C 0.53441881,8.0000001 1e-7,8.5728707 1e-7,9.2851563 V 12.714844 C 1e-7,13.42713 0.53441881,14 1.1992189,14 h 0.8007812 v 1 h 1 V 14 H 13 v 1 h 1 v -1 h 0.800781 C 15.465581,14 16,13.42713 16,12.714844 V 9.2851563 C 16,8.5728707 15.465581,8.0000001 14.800781,8.0000001 H 14 v -1 h 0.800781 C 15.465581,7.0000001 16,6.4271298 16,5.7148439 V 2.285156 C 16,1.572871 15.465581,0.99999995 14.800781,0.99999995 Z M 13,3 A 1,1 0 0 1 14,4 1,1 0 0 1 13,5 1,1 0 0 1 12,4 1,1 0 0 1 13,3 Z M 3.0000001,7.0000001 H 13 v 1 H 3.0000001 Z M 13,10 a 1,1 0 0 1 1,1 1,1 0 0 1 -1,1 1,1 0 0 1 -1,-1 1,1 0 0 1 1,-1 z"/>
</svg>

<svg xmlns="http://www.w3.org/2000/svg" width="16" height="16" version="1.1" viewBox="0 0 16 16">
 <defs>
  <style id="current-color-scheme" type="text/css">
   .ColorScheme-Text { color:#6e6e6e; } .ColorScheme-Highlight { color:#5294e2; }
  </style>
 </defs>
 <path style="fill:currentColor" class="ColorScheme-Text" d="M 1 1 C 0.446 1 0 1.446 0 2 L 0 6 C 0 6.554 0.446 7 1 7 L 2 7 L 2 8 L 1 8 C 0.446 8 0 8.446 0 9 L 0 13 C 0 13.554 0.446 14 1 14 L 2 14 L 2 15 L 3 15 L 3 14 L 13 14 L 13 15 L 14 15 L 14 14 L 15 14 C 15.554 14 16 13.554 16 13 L 16 9 C 16 8.446 15.554 8 15 8 L 14 8 L 14 7 L 15 7 C 15.554 7 16 6.554 16 6 L 16 2 C 16 1.446 15.554 1 15 1 L 1 1 z M 13 3 A 1 1 0 0 1 14 4 A 1 1 0 0 1 13 5 A 1 1 0 0 1 12 4 A 1 1 0 0 1 13 3 z M 3 7 L 13 7 L 13 8 L 3 8 L 3 7 z M 13 10 A 1 1 0 0 1 14 11 A 1 1 0 0 1 13 12 A 1 1 0 0 1 12 11 A 1 1 0 0 1 13 10 z"/>
</svg>
